X:1
T:Wo Gott zum haus
T:Wo Gott zum haus
T:Martin Luther
T:Ps 127
T:Source : Harmonia-Canticum Ecclesiasticarum---Leipzig---F.Schnelboltz---1597. Editor : André Vierendeels (26/01/15).
C:Martin Luther
%%score [ 1 2 3 4 ]
L:1/8
Q:1/4=120
M:2/2
K:F
V:1 treble nm="Cantus" snm="C"
V:2 treble nm="Altus" snm="A"
V:3 treble-8 nm="Tenor" snm="T"
V:4 bass nm="Bassus" snm="B"
V:1
 F4 c2 c2 | A2 G2 A2 B2 | c2 c2 A2 c2 | =B2 c2 A2 G2 | F2 c2 d2 d2 | A2 c2 B2 B2 | A2 f2 e2 d2 | %7
w: 1)Wo Gott zum|haus nicht gibt sein|gunst, so ar- beit|je- der- man umb|sonst. Wo Gott die|Stadt nit selbst be-|wacht, so ist umb|
w: 2)Ver- ge- bens|dasz ihr früh auff-|steht, dar- zu mit|hun- ger schlaf- fen|geht, und esst eur|Brod mit un- ge-|mach, den wems Gott|
w: 3)Nun sind sein|Er- ben un- ser|Kind, die uns von|ihm ge- ge- ben|sind. Gleich wie die|Pfeil ins star- cken|Hand, so ist die|
 c3 d BA G2 | F8 |] %9
w: sonst der Wech- * ter|macht.|
w: günt gibt ers _ im-|schlaff.|
w: Ju- gend Gott _ be-|kand.|
V:2
 F4 A2 G2 | F2 C2 C2 G2 | G2 G2 ^F2 G2 | G2 G2 F2 E2 | F2 A2 A2 A2 | F2 A2 G2 G2 | F2 B2 G2 F2 | %7
w: 4)Es soll und|musz ge- sche- hen|wol, der die- ser|hat sein Rö- cher|voll. Sie wer- den|nicht zu schand noch|spott, für ih- rem|
w: 5)Ehr sei dem|Va- ter und dem|Sohn, sampst heil- gen|Geist in ei- nem|Thron, welchs ihm auch|al- so sey be-|reit, von nun an|
 E3 D G F2 E | F8 |] %9
w: Feind be- wart _ sie|Gott.|
w: bisz in E- * wig-|keit.|
V:3
 c4 f2 e2 | d2 g2 f2 d2 | e2 e2 d2 e2 | d2 c2 c2 c2 | c2 f2 f2 f2 | c2 f2 d2 d2 | d2 d2 c2 A2 | %7
w: 1)Wo Gott zum|haus nicht gibt sein|gunst, so ar- beit|je- der- man umb|sonst. Wo Gott die|Stadt nit selbst be-|wacht, so ist umb|
w: 2)Ver- ge- bens|dasz ihr früh auff-|steht, dar- zu mit|hun- ger schlaf- fen|geht, und esst eur|Brod mit un- ge-|mach, den wems Gott|
w: 3)Und sind sein|Er- ben un- ser|Kind, die uns von|ihm ge- ge- ben|sind, gleich wie die|Pfeil ins star- cken|Hand, so ist die|
 A3 f _e2 c2 | c8 |] %9
w: sonst der Wech- ter|macht.|
w: günt gibt ers im-|schlaff.|
w: Ju- gend Gott be-|kand.|
V:4
 F,4 F,2 C,2 | D,2 E,2 F,2 G,2 | C,2 C,2 D,2 C,2 | G,2 C,2 F,2 C,2 | F,2 F,2 D,2 D,2 | %5
w: 4)Es soll und|musz ge- sche- hen|wol, der die- ser|hat sein Rö- cher|voll. Sie wer- den|
w: 5)Ehr sei dem|Va- ter und dem|Sohn, sampst heil- gen|Geist in ei- nem|Thron, welchs ihm auch|
 F,2 F,2 G,2 G,2 | D,2 B,,2 C,2 D,2 | A,,3 D, _E,F, C,2 | F,8 |] %9
w: nicht zu schand noch|spott, für ih- rem|Feind be- wart _ sie|Gott.|
w: al- so sey be-|reit, von nun an|bisz in E- * wig-|keit.|

